tools/download-figma-icons/icons/outlined-medium/family.svg

<svg width="24" height="24" viewBox="0 0 24 24" fill="none" xmlns="http://www.w3.org/2000/svg">
<path fill-rule="evenodd" clip-rule="evenodd" d="M17.8914 14.5295H3.70091C2.48743 14.5295 1.50044 13.5425 1.50044 12.3283V9.28036C1.50044 4.98967 4.99014 1.49998 9.28082 1.49998H10.5243C10.945 1.49998 11.2878 1.84272 11.2878 2.26422V6.95689C11.2083 6.98389 11.1295 7.01314 11.0538 7.04839L8.45434 4.44893C8.16109 4.15569 7.6871 4.15569 7.39385 4.44893C7.10061 4.74143 7.10061 5.21617 7.39385 5.50942L9.99331 8.10888C9.96331 8.17263 9.93781 8.23787 9.91306 8.30462H6.25012C5.83538 8.30462 5.50013 8.63987 5.50013 9.05461C5.50013 9.46936 5.83538 9.8046 6.25012 9.8046H9.91306C10.2228 10.6626 11.0365 11.2806 12.0003 11.2806C12.9625 11.2806 13.777 10.6626 14.086 9.8046H20.0942V12.3276C20.0942 13.5425 19.1057 14.5295 17.8914 14.5295ZM11.2068 17.1425L9.16156 16.0295H13.2513L11.2068 17.1425ZM12.0003 8.32938C12.4 8.32938 12.7248 8.65487 12.7248 9.05461C12.7248 9.45436 12.4 9.7806 12.0003 9.7806C11.5998 9.7806 11.2743 9.45436 11.2743 9.05461C11.2743 8.65487 11.5998 8.32938 12.0003 8.32938ZM16.111 18.8352C17.1212 18.8352 17.9424 19.6572 17.9424 20.6674C17.9424 21.6769 17.1212 22.4989 16.111 22.4989C15.1007 22.4989 14.2795 21.6769 14.2795 20.6674C14.2795 19.6572 15.1007 18.8352 16.111 18.8352ZM6.30335 22.4989C5.29312 22.4989 4.47113 21.6769 4.47113 20.6674C4.47113 19.6572 5.29312 18.8352 6.30335 18.8352C7.31359 18.8352 8.13482 19.6572 8.13482 20.6674C8.13482 21.6769 7.31359 22.4989 6.30335 22.4989ZM23.7917 6.13266L23.1115 5.42092C22.87 5.16892 22.4875 5.11717 22.1875 5.29492C20.638 6.21141 20.2166 7.48939 20.1146 8.30462H14.0861C13.8664 7.69563 13.3924 7.21114 12.7879 6.98089V2.26422C12.7879 1.01548 11.7724 0 10.5244 0H9.28097C4.16305 0 0.000610342 4.16319 0.000610342 9.28036V12.3283C0.000610342 14.369 1.66034 16.0295 3.70105 16.0295H6.02677L9.63871 17.9967L8.78223 18.4632C8.17174 17.777 7.292 17.3352 6.30351 17.3352C4.46679 17.3352 2.97131 18.83 2.97131 20.6674C2.97131 22.5042 4.46679 23.9989 6.30351 23.9989C8.14024 23.9989 9.63496 22.5042 9.63496 20.6674C9.63496 20.3577 9.57871 20.0644 9.49997 19.7802L11.2069 18.851L12.9139 19.781C12.8352 20.0644 12.7797 20.3577 12.7797 20.6674C12.7797 22.5042 14.2744 23.9989 16.1111 23.9989C17.9478 23.9989 19.4426 22.5042 19.4426 20.6674C19.4426 18.83 17.9478 17.3352 16.1111 17.3352C15.1226 17.3352 14.2429 17.777 13.6317 18.4632L12.7752 17.9967L16.3871 16.0295H17.8916C19.9331 16.0295 21.5943 14.369 21.5943 12.3276V8.98561C21.5943 8.95636 21.5913 8.91886 21.5883 8.88961C21.5823 8.83937 21.4735 7.78638 22.474 6.9254L22.708 7.16989C22.9953 7.46914 23.47 7.47964 23.7685 7.19314C24.0677 6.90664 24.0782 6.4319 23.7917 6.13266ZM6.3032 19.9296C5.89596 19.9296 5.56521 20.2596 5.56521 20.6668C5.56521 21.0741 5.89596 21.4048 6.3032 21.4048C6.71045 21.4048 7.04044 21.0741 7.04044 20.6668C7.04044 20.2596 6.71045 19.9296 6.3032 19.9296ZM16.8482 20.6674C16.8482 21.0747 16.5182 21.4047 16.111 21.4047C15.703 21.4047 15.3737 21.0747 15.3737 20.6674C15.3737 20.2602 15.703 19.9294 16.111 19.9294C16.5182 19.9294 16.8482 20.2602 16.8482 20.6674Z" fill="black"/>
</svg>

<svg xmlns="http://www.w3.org/2000/svg" width="24" height="24" fill="none" viewBox="0 0 24 24"><path fill="currentColor" fill-rule="evenodd" d="M17.891 14.53H3.701c-1.214 0-2.2-.987-2.2-2.202V9.28c0-4.29 3.49-7.78 7.78-7.78h1.243c.421 0 .764.343.764.764v4.693q-.12.04-.234.091l-2.6-2.6a.75.75 0 1 0-1.06 1.061l2.6 2.6a3 3 0 0 0-.08.196H6.25a.75.75 0 1 0 0 1.5h3.663A2.22 2.22 0 0 0 12 11.28a2.22 2.22 0 0 0 2.086-1.476h6.008v2.523a2.205 2.205 0 0 1-2.203 2.202m-6.684 2.612L9.162 16.03h4.09zM12 8.33a.726.726 0 1 1-.002 1.452A.726.726 0 0 1 12 8.329m4.111 10.506a1.833 1.833 0 0 1 0 3.664 1.834 1.834 0 0 1-1.832-1.832c0-1.01.822-1.832 1.832-1.832M6.303 22.5a1.834 1.834 0 0 1-1.832-1.832c0-1.01.822-1.832 1.832-1.832s1.832.822 1.832 1.832S7.314 22.5 6.303 22.5M23.792 6.133l-.68-.712a.75.75 0 0 0-.924-.126c-1.55.916-1.971 2.194-2.073 3.01h-6.029a2.22 2.22 0 0 0-1.298-1.324V2.264A2.266 2.266 0 0 0 10.524 0H9.281C4.163 0 .001 4.163.001 9.28v3.048a3.705 3.705 0 0 0 3.7 3.701h2.326l3.612 1.968-.857.466a3.3 3.3 0 0 0-2.478-1.128 3.336 3.336 0 0 0-3.333 3.332A3.336 3.336 0 0 0 6.304 24a3.336 3.336 0 0 0 3.331-3.332c0-.31-.056-.603-.135-.887l1.707-.929 1.707.93a3.3 3.3 0 0 0-.134.886A3.336 3.336 0 0 0 16.11 24a3.336 3.336 0 0 0 3.332-3.332 3.336 3.336 0 0 0-3.332-3.332c-.988 0-1.868.442-2.48 1.128l-.856-.466 3.612-1.968h1.505a3.706 3.706 0 0 0 3.702-3.701V8.986c0-.03-.003-.067-.006-.096-.006-.05-.114-1.104.886-1.965l.234.245a.75.75 0 1 0 1.084-1.037M6.303 19.93a.738.738 0 1 0 0 1.475.738.738 0 0 0 0-1.475m10.545.737a.737.737 0 1 1-1.474 0 .737.737 0 0 1 1.474 0" clip-rule="evenodd"/></svg>
